frontend/public/icons/twitter-verified-badge.svg

<svg width="24" height="24" viewBox="0 0 24 24" fill="none" xmlns="http://www.w3.org/2000/svg">
<path d="M10.5213 2.62368C11.3147 1.75255 12.6853 1.75255 13.4787 2.62368L14.4989 3.74391C14.8998 4.18418 15.4761 4.42288 16.071 4.39508L17.5845 4.32435C18.7614 4.26934 19.7307 5.23857 19.6757 6.41554L19.6049 7.92905C19.5771 8.52388 19.8158 9.10016 20.2561 9.50111L21.3763 10.5213C22.2475 11.3147 22.2475 12.6853 21.3763 13.4787L20.2561 14.4989C19.8158 14.8998 19.5771 15.4761 19.6049 16.071L19.6757 17.5845C19.7307 18.7614 18.7614 19.7307 17.5845 19.6757L16.071 19.6049C15.4761 19.5771 14.8998 19.8158 14.4989 20.2561L13.4787 21.3763C12.6853 22.2475 11.3147 22.2475 10.5213 21.3763L9.50111 20.2561C9.10016 19.8158 8.52388 19.5771 7.92905 19.6049L6.41553 19.6757C5.23857 19.7307 4.26934 18.7614 4.32435 17.5845L4.39508 16.071C4.42288 15.4761 4.18418 14.8998 3.74391 14.4989L2.62368 13.4787C1.75255 12.6853 1.75255 11.3147 2.62368 10.5213L3.74391 9.50111C4.18418 9.10016 4.42288 8.52388 4.39508 7.92905L4.32435 6.41553C4.26934 5.23857 5.23857 4.26934 6.41554 4.32435L7.92905 4.39508C8.52388 4.42288 9.10016 4.18418 9.50111 3.74391L10.5213 2.62368Z" stroke="black" stroke-width="1.5"/>
<path d="M9 12L11 14L15 10" stroke="black" stroke-width="1.5" stroke-linecap="round" stroke-linejoin="round"/>
</svg>

<svg xmlns="http://www.w3.org/2000/svg" width="24" height="24" fill="none" viewBox="0 0 24 24">
  <path stroke="#131927" stroke-width="1.5" d="M10.521 2.624a2 2 0 0 1 2.958 0l1.02 1.12a2 2 0 0 0 1.572.651l1.513-.07a2 2 0 0 1 2.092 2.09l-.071 1.514a2 2 0 0 0 .651 1.572l1.12 1.02a2 2 0 0 1 0 2.958l-1.12 1.02a2 2 0 0 0-.651 1.572l.07 1.513a2 2 0 0 1-2.09 2.092l-1.514-.071a2 2 0 0 0-1.572.651l-1.02 1.12a2 2 0 0 1-2.958 0l-1.02-1.12a2 2 0 0 0-1.572-.651l-1.513.07a2 2 0 0 1-2.092-2.09l.071-1.514a2 2 0 0 0-.651-1.572l-1.12-1.02a2 2 0 0 1 0-2.958l1.12-1.02a2 2 0 0 0 .651-1.572l-.07-1.513a2 2 0 0 1 2.09-2.092l1.514.071a2 2 0 0 0 1.572-.651l1.02-1.12Z"/>
  <path stroke="#131927" stroke-linecap="round" stroke-linejoin="round" stroke-width="1.5" d="m9 12 2 2 4-4"/>
</svg>
